X: 1
T: Korgi, The
M: 4/4
L: 1/8
R: reel
K: Dmaj
|: AAcA eAcA | GGBG dGBG | AAcA eAcA | BGBd egde :|
|: AAaA AeAA | GGBG dGBG | AAaA AeAA | BGBd egde :|
|: AAce aece | GGBd egde | AAce aece | BGBd egde :|
|: AAaA AeAA | BGBd egde | AAaA AeAA | BGBd egde :|
